X:1
T:Ma Mère L'Oye
T:Ma Mère L'Oye
T:5 pièces enfantines pour piano à quatre mains
%%score { 1 | 2 } { 3 | ( 4 5 ) }
L:1/8
Q:1/4=58
M:4/4
K:C
V:1 treble nm="Prima" snm="Prima"
V:2 treble 
V:3 treble nm="Seconda" snm="Seconda"
V:4 treble 
V:5 treble 
V:1
"^Lent""^I. Pavane de la Belle au bois dormant" z8 | z8 | A3 A BcGA | E8 |!pp! (e'd' a2- abe'd') | %5
 (e'd' a2- abe'd') | (e'd'ab c'2 bc') | (g2 a2) z2!p! ed | ef g2- gaed | ef g2- gaed | %10
!<(! ef d2- de B2-!<)! |!>(! B2 E^F G2 AB!>)! |!p! Ac e2- ed G2 | Ac e2- ed G2 | A3 A BcGA | z8 | %16
!pp! (e'd' a2- abe'd') | (e'd' a2- abe'd') | (e'd'ab c'2 bc') | (g4 !fermata!a2) z2 |] %20
[K:Eb][M:2/4][Q:1/4=66]"^Très modéré""^II. Petit Poucet""^Il croyait trouver aisément son chemin par le moyen de son pain qu'il avait semé\npartout où il avait passé; mais il fut bien surpris lorsqu'il n'en put retrouver une\nseule miette: les oiseaux étaient venus qui avaient tout mangé. (Ch. Perrault)" z4 | %21
[M:3/4] z6 |[M:4/4] z8 |[M:5/4] EFG=A=Bc!pp! d"_un peu en dehors et bien\nexpressif"(g=ab | %24
[M:3/4] g2 fg cd |[M:2/4] fe dc | B2 cd | dc c2) | z (g =ab |[M:3/4] g2 fg cd |[M:2/4] e2 B2) | %31
!p! (B2 GB | G2 EF | Gc B2-) | B(c G2 | FG EF | (3Gdc!<(! B2-!<)! | Bc dg |!mf! f4-) | %39
[M:3/4] f(g e2 dc |[M:2/4] f4- |!>(! fg ec)!>)! |!pp! z (g _a!courtesy!_b |[M:3/4] g2 fg cd- | %44
[M:2/4] d)(G AB |[M:3/4] G2 FG CD) |[M:2/4][K:bass] z!pp! (G,!<(! _A,B,!<)! | DB, CD | FD EF | %49
[K:treble] AG AB | dc de | gf ab |!f! d')"_très expressif"(c' d'e' | (3d'c'b .g)(b | %54
!>(! g2 f2-)!>)! |[M:3/4]!<(! fg!>(! ba (fc)!<)!!>)! |[M:2/4] e2 c2- | c4 | z4 |!p! z4 | z4 | z4 | %62
 z4 | z4 |!<(! z4!<)! |!<(! z4!<)! |!mf! z4 |[M:3/4] z6 |[M:2/4] z4 |!>(! z4!>)! | %70
 z!pp!!8va(!{/^g''} .=a''{/g''} .a''{/g''}.a''!8va)! |[M:3/4]!pp! z6 | %72
[M:2/4] z!pp!!8va(!{/^g''} .=a''{/g''} .a''{/g''}.a''!8va)! |[M:3/4] z6!pp! | %74
[M:2/4] z!pp! (D!<(! E!courtesy!=F!<)! | =A)(F GA | c)(=A Bc | e)(d ef | =a)!>(!(g a=b!>)! | %79
 d')!pp!"^expressif"!8va(!(g' =a'b'!8va)! |[M:3/4]!8va(! g'2 f'g' c'd'!8va)! | %81
[M:2/4]!8va(! f'e' d'c')!8va)! |!<(! (b2 c'd'!<)! |!>(! d'c' bg)!>)! |!<(! (b2 c'd'!<)! | %85
!>(! d'c' gb)!>)! |!>(! (g3 c)!>)! |!>(! (g3 c)!>)! |!>(! (d3 G)!>)! |!>(! (d3 G)!>)! | %90
!>(! (d4!>)! | c2 G2 | G4-) | G4 | z4 |[M:3/4] z6 |[M:4/4] z8 | %97
[M:5/4] z4 z2!pp!"^Un peu retenu" z4 |[M:2/4] !fermata![c'g']4 |] %99
[K:F#][M:2/4][K:treble][Q:1/4=116]"^Mouvt de Marche""^III. Laideronnette, Impératrice des Pagodes" z4 | %100
 z4 | z4 | z4 | z4 | z4 | z4 | z4 |!pp! (f'/d'/c'/d'/ af'/c'/) | .d'.d' (f'/d'/c'/d'/ | %109
 a/d'/f'/d'/ .d')(f'/d'/ | c'/d'/a/c'/ g/a/f/g/) | z g/a/ c'/d'/g/a/ | z f/g/ a/c'/f/g/ | %113
 z d/f/ g/a/d/g/ | z z (f'/d'/c'/d'/ | af'/c'/ .d').d' | (f'/d'/c'/d'/ a/d'/f'/c'/ | %117
 .d')f'/d'/!<(! c'/d'/a/c'/!<)! | g/a/f/g/ d/f/c/d/ |!mf! z!>(! d/f/ g/a/d/f/!>)! | %120
 z c/d/ f/g/c/d/ | z d/c/ d/f/A/d/ |!f! z/ z/ z/ z/ z/ z/ z/ z/ | %123
!pp! z/ z/!8va(! [f''g'']/ z/ [f''g'']/ z/ [f''g'']/ z/!8va)! |!f! z/ z/ z/ z/ z/ z/ z/ z/ | %125
!pp! z/ z/!8va(! [f''g'']/ z/ [f''g'']/ z/ [f''g'']/ z/!8va)! | %126
!f! z/ z/!>(! z/ z/ z/ z/ z/ z/!>)! | z/ z/ z/ z/ z/ z/ z/ z/ | z4 | z4 |] %130
V:2
 z8 | z8 | z8 | z8 |!pp! (!tenuto!.d2 !tenuto!.d2 !tenuto!.d2 !tenuto!.d2) | %5
 (!tenuto!.d2 !tenuto!.d2 !tenuto!.d2 !tenuto!.d2) | %6
 (!tenuto!.d2 !tenuto!.d2 !tenuto!.d2 !tenuto!.d2) | (B2 c2)!p! z4 | z8 | z8 |!<(! z8!<)! | %11
!>(! z8!>)! |!p! (!tenuto!.F2 !tenuto!.F2 !tenuto!.F2 !tenuto!.F2) | %13
 (!tenuto!.F2 !tenuto!.F2 !tenuto!.F2 !tenuto!.F2) | %14
 (!tenuto!.F2 !tenuto!.F2 !tenuto!.F2 !tenuto!.F2) | E8 | %16
!pp! (!tenuto!.d2 !tenuto!.d2 !tenuto!.d2 !tenuto!.d2) | %17
 (!tenuto!.d2 !tenuto!.d2 !tenuto!.d2 !tenuto!.d2) | %18
 (!tenuto!.d2 !tenuto!.d2 !tenuto!.d2 !tenuto!.d2) | (B4 !fermata!c2) z2 |][K:Eb][M:2/4] z4 | %21
[M:3/4] z6 |[M:4/4] z8 |[M:5/4] z4 z2!pp! z4 |[M:3/4] z6 |[M:2/4] z4 | z4 | z4 | z4 |[M:3/4] z6 | %30
[M:2/4] z4 |!p! z4 | z4 | z4 | z4 | z4 | z4 | z4 |!mf! z4 |[M:3/4] z6 |[M:2/4] z4 |!>(! z4!>)! | %42
!pp! z (d ef |[M:3/4] d^c =c=B _B=A) |[M:2/4] z (D EF |[M:3/4] D^C =C=B, _B,=A,) | %46
[M:2/4][K:bass] z!pp! F,2!<(! F,-!<)! | F, A,2 C- | C C2 E- | E[K:treble] F2 (G- | GA Bc | de fg | %52
!f! a)(g b2 | g2 .e)(e- |!>(! ee de!>)! |[M:3/4]!<(! cd!>(! e2 dA-!<)!!>)! |[M:2/4] AB AG | %57
 FG FE) | z4 |!p! (E2 CE | C2 A,B, | CF (E2-) | EF C2 | B,C A,B, | (3CG!<(!F E2-!<)! | %65
!<(! EF Gc!<)! |!mf! B4-) |[M:3/4] B(c A2 GF |[M:2/4] B4-) |!>(! B(c AF)!>)! |!pp! z4 | %71
[M:3/4] z2 z/!pp! !tenuto!.!courtesy!=f/!tenuto!.d z/ !tenuto!.f/!tenuto!.d |[M:2/4]!pp! z4 | %73
[M:3/4] z2 z/!pp! !tenuto!.!courtesy!=f/!tenuto!.d z/ !tenuto!.f/!tenuto!.d | %74
[M:2/4] z!pp!!<(! (C2 E-!<)! | E) (E2 G- | G) (G2 B- | B) (c2 e | =e!>(! f3)!>)! | g!pp!(e fg | %80
[M:3/4] ed cd =A=B |[M:2/4] c_B _AG) |!<(! (FG AB!<)! |!>(! [EG]4)!>)! |!<(! (FG AB!<)! | %85
!>(! [EG]4)!>)! |!>(! [EG]4!>)! |!>(! [EG]4!>)! |!>(! E4!>)! |!>(! E4!>)! |!>(! E4-!>)! | E4 | %92
 E4- | E4 | z4 |[M:3/4] z6 |[M:4/4] z8 |[M:5/4] EFG=A=Bc!pp! d(g=ab |[M:2/4] !fermata!g4) |] %99
[K:F#][M:2/4][K:treble] z4 | z4 | z4 | z4 | z2 CD | FG Ad | CD FG | Ad CD |!pp! z4 | z4 | z4 | z4 | %111
 .d z z2 | .d z z2 | .d z z2 | .f.f z2 | z4 | z4 | z4 | z4 |!mf! .A!>(! z z2!>)! | .A z z2 | %121
 .A z z2 |!f! .c[gc'] z [gc'] |!pp! z/ ([c'd']/ z/ [c'd']/ z/ [c'd']/ z/ [c'd']/) | %124
!f! z [gc'] z [gc'] |!pp! z/ ([c'd']/ z/ [d'e']/ z/ [d'e']/ z/ [d'e']/) | %126
!f! z!>(! [gc'] z [gc']!>)! | z c z c | z4 | z4 |] %130
V:3
!p! (Ac e2- ed G2) | (Ac e2- ed G2) | (A3 A BcGA |!>(! E8)!>)! |!pp! (F2 ^F2 G2 F2) | %5
 (=F2 ^F2 G2 F2) | (=F2 ^F2 G2 F2) | (=F2 E2) z4 | z2 (e2 d2 c2 | B4 A2 B2) | %10
!<(! (B2 A2 G2 DG!<)! |!>(! D2 ^C4 =C2)!>)! |!p! (C2 B,2 A,3 B,) | (C2 B,2 A,3 B,) | %14
 (C2 B,2 A,3 B,) |!>(! B,8!>)! |!pp! (F2 ^F2 G2 F2) | (=F2 ^F2 G2 F2) | (=F2 ^F2 G2 F2) | %19
 (=F4 !fermata!E2) z2 |][K:Eb][M:2/4]!pp! G=A =BD |[M:3/4] EF G=A =Bc |[M:4/4] DEFG =A=Bcd | %23
[M:5/4] EFG=A=Bc defg |[M:3/4] ed cd =A=B |[M:2/4] c_B _AG | FG AF | GA GF | Ee fg | %29
[M:3/4] ed cd AB |[M:2/4]!p! GA GF | GF EF | ED CD | EF GA | GF ED | ED CD | EF!<(! GA!<)! | %37
 GA Bc |!mf! de dc |[M:3/4] de c2 BA |[M:2/4] de dc |!>(! dc BA!>)! |!pp! G=B cd | %43
[M:3/4] =B_B =A_A G^F |[M:2/4][K:bass] z =B, CD |[M:3/4] =B,_B, =A,_A, G,^F, | %46
[M:2/4]!pp! z!<(! =B,, C,D,!<)! |!<(! F,D, E,F,!<)! |!<(! A,F, G,A,!<)! |!<(! C=B, CD!<)! | %50
[K:treble]!<(! EF GA!<)! |!<(! Bc de!<)! |!f! fe fg | e2 .c!>(!c-!>)! |!>(! cc Bc!>)! | %55
[M:3/4]!<(! AB c2!>(! BF-!<)!!>)! |[M:2/4]!>(! FG FE!>)! | DE DC | DE DC |[K:bass]!p! CB, A,B, | %60
 A,G, F,G, | A,B, C_D | CB, A,G, | A,G, F,G, | A,B,!<(! C_D!<)! |!<(! C_D EF!<)! | %66
[K:treble]!mf! GA GF |[M:3/4] GA F2 E_D |[M:2/4] GA GF | GF E_D |[K:bass]!p! z D _E!courtesy!=F | %71
[M:3/4] D2 CD B,C |[M:2/4] z D EF |[M:3/4] D2 CD B,C |[M:2/4] =F,!pp!^F,!<(! G,=A,!<)! | %75
!<(! C=A, B,C!<)! |!<(! EC DE!<)! |[K:treble]!<(! G^F G=A!<)! |!<(! c!>(!=B cd!<)!!>)! | %79
 e!pp!c de |[M:3/4] cB !courtesy!_A!courtesy!_B FG |[M:2/4] !courtesy!_AG FE |!<(! DE FG!<)! | %83
!>(! DC B,G,!>)! |!<(! DE FG!<)! |!>(! DC G,B,!>)! | A,=A, B,A, | _A,=A, B,A, | _A,=A, B,A, | %89
 _A,=A, B,A, |!>(! _A,=A, B,A,!>)! |!>(! _A,=A, B,B,!>)! |!>(! _A,=A, B,G,!>)! | %93
!>(! _A,=A, B,=B,!>)! |!pp! G=A =BD |[M:3/4] EF GA =Bc |[M:4/4] DEFG =A=Bcd | %97
[M:5/4] EFG=A=Bc defg |[M:2/4] !fermata!=e4 |][K:F#][M:2/4][K:treble] z4!pp! | [GA]2 z2 | %101
 [cd]2 z2 | [GA]2 z2 | [cd]2 z [GA] | z [cd] z [cd] | z [GA] z [cd] | z [cd] z [GA] | %107
 z [cd] z [cd] | z [GA] z [cd] | z [cd] z [GA] | z [AB] z [cd] | z B [FG] z | z B [FG] z | %113
 z B [FG] z | z [GA] z [cd] | z [cd] z [GA] | z [cd] z [cd] | z!<(! [GA] z [cd]!<)! | z c z2 | %119
!mf! z!>(! F [CD] z!>)! | z F [CD] z | z F [CD] z |!f! z c z c |!p! z [Bf] z [Bf] |!f! z c z c | %125
!p! z [Bf] z [Bf] |!f! z!>(! c z c!>)! | z G z G | z G z G | z G z G |] %130
V:4
!p! (A,2 G2 F2 EF) | (A,2 G2 F2 EF) | (A,2 C2 C2 D2) |[K:bass]!>(! z2 (E,2 E,,2 E,2)!>)! | %4
!pp! E,,8 | E,,8 | E,,8 | (E,,2 A,,2) A,,,2 z2 | z8 | z2 (C2 F,2 G,2 |!<(! C,2 F,2 B,,2 E,2)!<)! | %11
!>(! A,,8!>)! | D,8 | D,8 | D,8 |!>(! z2 (E,2 E,,2 E,2)!>)! |!pp! E,,8 | E,,8 | E,,8 | %19
 z2 (E,,2 !fermata!A,,,2) z2 |][K:Eb][M:2/4][K:treble]!pp! EF G=B, |[M:3/4] CD EF G_A | %22
[M:4/4] =B,CDE FG=A=B |[M:5/4] CDEFG=A =Bcde |[M:3/4] c_B _AB FA |[M:2/4] _AG FE | DE FD | EF ED | %28
 Cc de |[M:3/4] cB AB FB, |[M:2/4]!p! EF ED | ED CD | CB, A,B, | CD EF | ED CB, | CB, A,B, | %36
 CD!<(! EF!<)! | EF GA |!mf! Bc BA |[M:3/4] Bc GA FE |[M:2/4] Bc BA |!>(! BA GE!>)! | %42
[K:bass]!pp! G,4- |[M:3/4] G,6 |[M:2/4] G,4 |[M:3/4] G,4 G,2 |[M:2/4]!pp! G,,4- |!<(! G,,4-!<)! | %48
!<(! G,,4!<)! |!<(! G,,4!<)! |!<(! G,4!<)! |[K:treble]!<(! G4!<)! |!f! z c de | (3dcB .G!>(!B!>)! | %54
!>(! G2 F2-!>)! |[M:3/4]!<(! FG BA!>(! FC!<)!!>)! |[M:2/4]!>(! E2 C2!>)! | z4 |[K:bass] B,C B,A,- | %59
!p! A,G, F,G, | F,E, _D,E, | F,G, A,B, | A,G, F,E, | F,E, _D,E, | F,G,!<(! A,B,!<)! | %65
!<(! A,B, C_D!<)! |[K:treble]!mf! EF E_D |[M:3/4] EF C_D B,A, |[M:2/4] EF E_D | E_D CA, | %70
[K:bass]!p! z ^F, G,=A, |[M:3/4] ^F,B, =A,^G, =G,F, |[M:2/4] =F,^F, G,=A, | %73
[M:3/4] ^F,B, =A,^G, =G,F, |[M:2/4] z!pp!!<(! D,,3-!<)! |!<(! D,,4-!<)! |!<(! D,, D,,3-!<)! | %77
!<(! D,,4!<)! |!<(!!>(! G,,,4!<)!!>)! | z!pp! B,, =C,D, |[M:3/4] B,,2 A,,B,, E,,F,, | %81
[M:2/4] A,,G,, F,,E,, |!<(! D,,2 E,,F,,!<)! |!>(! z4!>)! |!<(! D,,2 E,,F,,!<)! |!>(! z4!>)! | %86
[K:bass] F,,2 C,2 | F,,2 C,2 | F,,2 C,2 | F,,2 C,2 |!>(! F,,4-!>)! |!>(! F,,4!>)! |!>(! C,,4-!>)! | %93
!>(! C,,4!>)! |[K:treble]!pp! EF G=B, |[M:3/4] CD EF G_A |[M:4/4] =B,CDE FG=A=B | %97
[M:5/4] CDEFG=A =Bcde |[M:2/4] !fermata!c4 |][K:F#][M:2/4][K:treble] z2!pp! CD- | D2 FG- | G2 CD- | %102
 D2 FG- | G2 CD | FG A z | (CD) FG | A z (CD) | FG A z | (CD) FG | A z CD | FG A z | (C z z D) | %112
 (C z z D) | (C z z D) | CE FG | A z CD | FG A z | C!<(!D FG!<)! | A z (CD) | %119
!mf! (G,!>(! z z A,)!>)! | (G, z z A,) | (G, z z A,) |!f! [CG] z [CG] z |!p! [B,F] z [B,F] z | %124
!f! [CG] z [CG] z |!p! [B,F] z [B,F] z |!f! [CG]!>(! z [CG] z!>)! | C z C z | C z C z | C z C z |] %130
V:5
 x8 | x8 | x8 |[K:bass] x8 | x8 | x8 | x8 | x8 | x8 | x8 | x8 | x8 | x8 | x8 | x8 | x8 | x8 | x8 | %18
 x8 | x8 |][K:Eb][M:2/4][K:treble] x4 |[M:3/4] x6 |[M:4/4] x8 |[M:5/4] x10 |[M:3/4] x6 | %25
[M:2/4] x4 | x4 | x4 | x4 |[M:3/4] x6 |[M:2/4] x4 | x4 | x4 | E,4 | x4 | x4 | E,4 | x4 | x4 | %39
[M:3/4] x6 |[M:2/4] x4 | x4 |[K:bass] x4 |[M:3/4] x6 |[M:2/4] x4 |[M:3/4] x6 |[M:2/4] x4 | x4 | %48
 x4 | x4 | x4 |[K:treble] x4 | x4 | x4 | x4 |[M:3/4] x6 |[M:2/4] x4 | x4 |[K:bass] x4 | x4 | x4 | %61
 A,,4 | x4 | x4 | A,,4 | x4 |[K:treble] x4 |[M:3/4] x6 |[M:2/4] x4 | x4 |[K:bass] =D,4- | %71
[M:3/4] D,6 |[M:2/4] D,4- |[M:3/4] D,6 |[M:2/4] x4 | x4 | x4 | x4 | x4 | x4 |[M:3/4] x6 | %81
[M:2/4] x4 | x4 | x4 | x4 | x4 |[K:bass] x4 | x4 | x4 | x4 | x4 | x4 | x4 | x4 |[K:treble] x4 | %95
[M:3/4] x6 |[M:4/4] x8 |[M:5/4] x10 |[M:2/4] x4 |][K:F#][M:2/4][K:treble] x4 | x4 | x4 | x4 | x4 | %104
 x4 | x4 | x4 | x4 | x4 | x4 | x4 | x4 | x4 | x4 | x4 | x4 | x4 | x4 | x4 | x4 | x4 | x4 | x4 | %123
 x4 | x4 | x4 | x4 | x4 | x4 | x4 |] %130

